static/img/drf-logo-small-black.svg

<svg height="44" viewBox="0 0 43 44" width="43" xmlns="http://www.w3.org/2000/svg"><g fill="none" fill-rule="evenodd" transform="translate(2 2)"><g fill="#000" fill-rule="nonzero"><path d="m10.022 14.817c3.078 0 5.332 2.301 5.332 5.441 0 3.139-2.254 5.44-5.332 5.44h-3.948v-10.881zm0 2.177h-1.772v6.528h1.772c1.865 0 3.155-1.383 3.155-3.263.001-1.882-1.289-3.265-3.155-3.265z"/><path d="m33.806 14.945v2.176h-4.85v2.176h4.85v2.176h-4.85v4.353h-2.176v-10.881z"/><path d="m26.797 25.838c.319-.088.637-.209.951-.372l-.869-1.483c-.028.013-.055.022-.082.034z"/><path d="m25.897 24.208c-.862-.027-1.584-.674-2.074-1.615l-.476-.914c.999-.667 1.614-1.799 1.614-3.146l-.008-.008c0-2.176-1.601-3.792-3.84-3.792h-.066-4.69v10.88h2.176v-3.279h2.503l.085-.009c.051 0 .1-.005.15-.007l.73 1.401c.81 1.555 2.303 2.367 3.896 2.269zm-3.122-5.667c0 .932-.622 1.616-1.663 1.616h-2.579v-3.248h2.58c1.042 0 1.663.684 1.663 1.616z"/></g><circle cx="19.807" cy="20.135" r="19.667" stroke="#000" stroke-width="3"/></g></svg>

<?xml version="1.0" encoding="UTF-8"?>
<svg width="43px" height="44px" viewBox="0 0 43 44" version="1.1" xmlns="http://www.w3.org/2000/svg" xmlns:xlink="http://www.w3.org/1999/xlink">
    <!-- Generator: Sketch 42 (36781) - http://www.bohemiancoding.com/sketch -->
    <title>Group 3</title>
    <desc>Created with Sketch.</desc>
    <defs></defs>
    <g id="Page-1" stroke="none" stroke-width="1" fill="none" fill-rule="evenodd">
        <g id="Group-2" transform="translate(2.000000, 2.000000)">
            <g id="Group-3">
                <path d="M10.022,14.817 C13.1,14.817 15.354,17.118 15.354,20.258 C15.354,23.397 13.1,25.698 10.022,25.698 L6.074,25.698 L6.074,14.817 L10.022,14.817 L10.022,14.817 Z M10.022,16.994 L8.25,16.994 L8.25,23.522 L10.022,23.522 C11.887,23.522 13.177,22.139 13.177,20.259 C13.178,18.377 11.888,16.994 10.022,16.994 L10.022,16.994 Z" id="Shape" fill="#000000" fill-rule="nonzero"></path>
                <polygon id="Shape" fill="#000000" fill-rule="nonzero" points="33.806 14.945 33.806 17.121 28.956 17.121 28.956 19.297 33.806 19.297 33.806 21.473 28.956 21.473 28.956 25.826 26.78 25.826 26.78 14.945"></polygon>
                <path d="M26.797,25.838 C27.116,25.75 27.434,25.629 27.748,25.466 L26.879,23.983 C26.851,23.996 26.824,24.005 26.797,24.017 L26.797,25.838 Z" id="Shape" fill="#000000" fill-rule="nonzero"></path>
                <path d="M25.897,24.208 C25.035,24.181 24.313,23.534 23.823,22.593 L23.347,21.679 C24.346,21.012 24.961,19.88 24.961,18.533 L24.953,18.525 C24.953,16.349 23.352,14.733 21.113,14.733 L21.047,14.733 L16.357,14.733 L16.357,25.613 L18.533,25.613 L18.533,22.334 L21.036,22.334 L21.121,22.325 C21.172,22.325 21.221,22.32 21.271,22.318 L22.001,23.719 C22.811,25.274 24.304,26.086 25.897,25.988 L25.897,24.208 Z M22.775,18.541 C22.775,19.473 22.153,20.157 21.112,20.157 L18.533,20.157 L18.533,16.909 L21.113,16.909 C22.155,16.909 22.776,17.593 22.776,18.525 L22.775,18.541 Z" id="Shape" fill="#000000" fill-rule="nonzero"></path>
                <circle id="Oval" stroke="#000000" stroke-width="3" cx="19.807" cy="20.135" r="19.667"></circle>
            </g>
        </g>
    </g>
</svg>
